X:1
T:Wichita, 77.77 D
T:Wichita, 77.77 D
T:James Ramsey Murray, 1881
T:Public Domain Courtesy of the Cyber Hymnal™
C:James Ramsey Murray, 1881
Z:Public Domain
Z:Courtesy of the Cyber Hymnal™
%%score ( 1 2 ) ( 3 4 )
L:1/8
Q:1/4=105
M:9/8
K:G
V:1 treble 
V:2 treble 
V:3 bass 
V:4 bass 
V:1
 (Bd)[Gc] [GB]3 G3 | (AE)[DF] [DG]3- [DG]2 z | ([EG][DF])[CE] [B,D]3 [DG]3 | %3
 (GF)[=CG] [DA]3- [DA]2 z | (Bd)[Gc] [GB]3 G3 | (AE)[DF] [DG]3- [DG]2 z | (GA)[GB] [Gc]3 [Ge]3 | %7
 (dA)[FB] G3- G2 z | ([DF][^C^E])[DF] [FA]3 [FA]3 | ([EG][DF])[EG] [GB]3- [GB]2 z | %10
 ([^CA][DB])[E^c] [Ge]3 [Fd]3 | (^cB)[Gc] [Fd]3- [Fd]2 z | ([GB][Fd])[Ec] [DB]3 [DG]3 | %13
 ([B,G][CA])[DB] [Ec]3- [Ec]2 z | (DF)[DA] [Dd]3 [Ec]3 | [DB]2 [CA] [B,G]3- [B,G]2 z |] %16
V:2
 G2 x3 G3 x | E2 x7 | x9 | ^C2 x7 | G2 x3 G3 x | E2 x7 | G2 x7 | F2 G3- G2 x2 | x9 | x9 | x9 | %11
 G2 x7 | x9 | x9 | D2 x7 | x9 |] %16
V:3
 (G,B,)[G,A,] G,3 [B,,D]3 | [C,C]2 [D,C] [G,B,]3- [G,B,]2 z | [C,C]2 [E,G,] [G,,G,]3 [G,B,]3 | %3
 [E,A,]2 [E,G,] [D,F,]3- [D,F,]2 z | (G,B,)[G,A,] G,3 [B,,D]3 | [C,C]2 [D,C] [G,B,]3- [G,B,]2 z | %6
 (B,C)[=F,D] [E,C]3 [C,C]3 | [D,C]2 [D,D] [G,B,]3- [G,B,]2 z | D,6- D,3 | A,,6- A,,3 | %10
 A,,3 A,,3 (A,,D,F,) | [A,,A,]3 D,3- D,2 z | G,2 G, G,3 [G,B,]3 | G,2 G, [C,G,]3- [C,G,]2 z | %14
 [D,F,]2 [D,F,] [B,,G,]3 [C,G,]3 | [D,G,]2 [D,F,] [G,,G,]3- [G,,G,]2 z |] %16
V:4
 G,2 G,3 x4 | x9 | x9 | x9 | G,2 G,3 x4 | x9 | G,2 x7 | x9 | x9 | x9 | x9 | x9 | G,2 G, G,3 x3 | %13
 G,2 G, x6 | x9 | x9 |] %16

